X:1
T:Viv'ardor, viva fiamma
T:Madalena Casulana
T:Source : Secondo libro de madrigali a quattro voci---Venetia---G.Scotto---1570. Editor : André Vierendeels (23/08/17).
T:Viv'ardor, viva fiamma
T:©
T:©
T:©
T:©
C:Madalena Casulana
Z:©
%%score [ 1 2 3 4 ]
L:1/8
Q:1/4=120
M:2/2
K:F
V:1 treble nm="Soprano 1" snm="S 1"
V:2 treble nm="Soprano 2" snm="S 2"
V:3 treble nm="Alto" snm="A"
V:4 treble-8 nm="Tenor" snm="T"
V:1
 z8 | g8- | g4 e4 | e2 e4 f2 | e4 c4 | z2 c4 c2 | A3 B c4 | A2 f2 f4 | e4 d4 | z2 c2 c2 B2 | %10
w: |Viv'|_ ar-|dor, vi- va|fiam- ma,|vi- va|fia- * *|ma, ac- ces'|h'a- mor|in dui sin-|
 G2 A2 G4 | F2 f2 f2 f2 | f4 e2 e2- | e2 c2 f2 f2 | d4 c4 | z4 c4- | c2 c2 c4 | d6 A2 | A4 A2 f2- | %19
w: ce- ri co-|ri, che temp' e|luo- co non|_ es- tin- gue|dram- ma,|an-|* zi si|grat' o-|do- ri, es-|
 ff f2 f2 e2 | d4 e2 e2 | e2 f2 d2 c2 | d4 d2 f2- | fedc d2 g2 | g4 e4 | z4 e4 | d2 g2 f4- | %27
w: * can da si bel|fo- co che|ren- don l'a- er|grat' in o-|* * * * * gni|lio- co,|on-|de nel al-|
 f2 e2 d2 d2 | d2 A2 c4 | d2 d2 d4- | d2 c2 d2 B2 | A4 G2 d2 | d6 f2 | _e2 d2 c4 | d4 c2 A2 | %35
w: * te'ogn' un scol-|pi- to ve-|de, d'a- mor,|_ piu bell' in|pre- se, d'a-|mor piu|bell' in pre-|se PU- LI-|
 d4 c2 c2 | A4 z2 c2 | B2 G2 A4 | G2 d4 d2 | g4 f2 f2 | d4 c4 | f4 e4 | d8 | e8 |] %44
w: SE- NA gen-|til SA-|LON cor- te-|se, PU- LI-|SE- NA gen-|til SA-|LON cor-|te-|se.-|
V:2
 z8 | z8 | z8 | c8- | c4 A4 | A2 A4 G2 | c4 A4 | z2 A2 A3 B | c4 =B4 | c4 z4 | z8 | z2 B2 B2 B2 | %12
w: |||Viv'|_ ar-|dor, vi- va|fiam- ma,|ac- ces' _|_ h'a-|mor,||che temp' e|
 A4 G2 G2 | E2 A4 A2 | B4 A4 | z4 A4- | A2 A2 G4 | B2 F4 D2- | D^C/=B,/ C2 D2 A2- | AA A2 A2 G2 | %20
w: luo- co non|es- tin- gue|dram- ma,|an-|* zi si|grat' o- do-|* * * * ri, es-|* can da si bel|
 G4 G2 c2 | c2 c2 B2 G2 | B3 A/G/ F2 B,2 | B4 F2 c2- | c=B/A/ B2 c4 | z4 c4 | B2 d4 c2- | %27
w: fo- co che|ren- don l'a- er|grat' _ _ _ in|o- gni luo-|* * * * co,|on-|de nel al-|
 c2 c2 B2 A2 | D2 F2 G4 | B2 B2 B4 | B2 A4 G2 |"^-natural" ^F4 G2 F2 | B6 B2 | B2 B2 A4 | %34
w: * tr'ogn' un scol-|pi- to ve-|de, d'a- mor|piu bell' in|pre- se, d'a-|mor piu|bell' in pre-|
 B4 A2 c2 | B4 A2 G2 | c4 A2 G2- | G2 G2 ^F4 | G2 B4 B2 | B4 B2 A2 | B4 A4 | c4 c2 c2- | %42
w: se PU- LI-|SE- NA gen-|til SA- LON|_ cor- te-|se, PU- LI-|SE- NA gen-|til SA-|LON cor- te-|
 c2 =BA B4 | c8 |] %44
w: |se.|
V:3
 G8- | G4 E4 | E2 G4 A2 | G4 C4 | z2 E4 F2 | EC F3 E/D/ E2 | F4 z2 C2 | D4 C4 | G4 z2 G2 | %9
w: Viv'|_ ar-|dor, vi- va|fiam- ma,|vi- va|fiam- * * * * *|ma, ac-|ces' h'a-|mor in|
 E2 F2 EFGD | E2 F4 E2 | F2 D2 D2 D2 | C4 C4 | z2 E2 D2 F2- | F2 F2 F4 | C4 F4- | F2 F2 E4 | %17
w: dui sin- ce- * * *|* ri co-|ri, che temp' e|luo- co|non es- tin-|* gue dram-|ma, an-|* zi si|
 F2 B2 AGFE/D/ | E4 F2 D2- | DD D2 C2 C2 | =B,4 C2 G2 | G2 A2 F2 E2 | F3 E DC D2- | D2 F2 D2 _E2 | %24
w: grat' o- do- * * * *|* ri, es-|* can- da si bel|fo- co che|ren- don l'a- er|grat' _ _ _ _|_ in o- gni|
 D4 G4 | z4 G4 | G2 B2 A4 | A2 G4 F2 | G2 F4 E2 | F2 F2 F4 | B,2 F4 G2 | D4 G,2 B,2 | F6 D2 | %33
w: luo- co,|on-|de nel al-|tr'ogn' un scol-|pi- to ve|de, d'a- mor|piu bell' in|pre- se, d'a-|mor piu|
 G2 F2 F4 | F2 F4 F2 | B,4 F2 C2 | F,2 F2 F2 C2 | _E4 D4 | z2 F4 F2 | _E4 D2 C2 | F4 F4 | A4 G4 | %42
w: bell' in pre-|se PU- LI-|SE- MA gen-|til SA- LON cor-|te- se,|PU- LI-|SE- NA gen-|til SA-|LON cor-|
 G8 | G8 |] %44
w: te-|se.|
V:4
 z8 | z8 | c8- | c4 A4 | A2 A4 F2 | A3 B c4 | F8 | z2 D2 F4 | C4 G4 | z8 | z8 | z2 B,2 B,2 B,2 | %12
w: ||Viv'|_ ar-|dor, vi- va|fiam- * *|ma,|ac- ces'|h'a- mor|||che temp' e|
 F4 C2 c2- | c2 A2 d2 d2 | B4 F4 | z4 F4- | F2 F2 c4 | B4 d4 | A4 D2 D2- | DD D2 F2 C2 | G4 C2 c2 | %21
w: luo- co non|_ es- tin- gue|dram- ma,|an|_ zi si|grat' o-|do- ri, es-|* can- da si bel|fo- co che|
 c2 A2 B2 c2 | B4 B4 | B6 c2 | G4 C4 | z4 c4 | G4 d2 f2- | f2 c2 d2 d2 | B2 d2 c4 | B2 B,2 B,4 | %30
w: ren- don l'a- er|grat' in|o- gni|luo- co,|on-|de nel al-|* tr'ohn' un scol-|pi- to ve-|de, d'a- mor|
 z8 | z4 z2 B,2 | B,4 B4 | _E2 B,2 F4 | B,4 z4 | z8 | z8 | z8 | z2 B4 B2 | _E4 B2 F2 | B,4 F4 | %41
w: |d'a-|mor piu|bell' in pre-|se,||||PU- LI-|SE- NA gen-|til SA-|
 F4 C4 | G8 | C8 |] %44
w: LON cor-|te-|se.|

